%
O2003(Contour Geometry)
(Machine Mazak v7.5, use 2002.nc as stub)
(Melvin)
(No Cutter Compensation)
(depth .20)
(start X-.5 Y-.5)



G00 G20 G17 G40 G49 G54 G80 G90
G00 G28 G91 Z0.0 M39
G00 G28 G91 X0. Y0.
T03 ( 3/8 2 FLUTE END MILL HSS)
(T3 Standyby)
M06 T00
G00 G90 G55 X-.5 Y-0.5
G00 G45 H03 Z2.0
G00 X0 Y0
G00 X0 Y0
G01 Y3.5 F10.
G02 X.5 Y4.0 I.5 J0
G01 X3.125
G01 X3.332 Y3.513
G01 X4.0 Y1.9386
G01 Y.625
G02 X3.375 Y0. I-.625 J0.
G01 X0


G00 Z.1 T10
G00 G28 G91 G0.0
M06 T03
G00 G17 G20 G40 G49 G90 G90
G00 G90 G55 X__ Y___
G00 G45 H10 Z2.0



G00 Z.1 T00
G00 G28 G91 Z0.0
G00 G28 G91 G90 G90
M06 T10
G54
M30
%